X:127
T: Der Spielmannssohn
N: Q0062A
O: Mitteleuropa, Deutschland / Frankreich, Lothringen,
N: Verzierung (Nachschlag) in der dritten Zeile.
R: Ballade, Verfuehrung, Standesunterschied, Strafe, Gnade
M: 6/4
L: 1/8
K: F
C2 | F3EF2G4c2 | A3GA2F4
F2 | G3AB2c3BA2 | F3GA2G4
G2 | c3dc2cBA2G2 | F3CFAG3A
F2 | G3AB2c3BA2 | G4c2F4

@@@ Tune index: 1003
